src/assets/images/footer-social-4.svg

<svg width="28" height="28" viewBox="0 0 28 28" fill="none" xmlns="http://www.w3.org/2000/svg">
<path d="M23.994 24L24 23.999V15.197C24 10.891 23.073 7.574 18.039 7.574C15.619 7.574 13.995 8.902 13.332 10.161H13.262V7.976H8.489V23.999H13.459V16.065C13.459 13.976 13.855 11.956 16.442 11.956C18.991 11.956 19.029 14.34 19.029 16.199V24H23.994ZM0.396 7.977H5.372V24H0.396V7.977ZM2.882 0C1.291 0 0 1.291 0 2.882C0 4.473 1.291 5.791 2.882 5.791C4.473 5.791 5.764 4.473 5.764 2.882C5.76347 2.11781 5.45966 1.38507 4.9193 0.844703C4.37893 0.304338 3.64619 0.000529769 2.882 0Z" fill="white"/>
</svg>

<svg xmlns="http://www.w3.org/2000/svg" width="28" height="28" fill="none"><path fill="#fff" d="m23.994 24 .006-.001v-8.802c0-4.306-.927-7.623-5.961-7.623-2.42 0-4.044 1.328-4.707 2.587h-.07V7.976H8.489v16.023h4.97v-7.934c0-2.089.396-4.109 2.983-4.109 2.549 0 2.587 2.384 2.587 4.243V24h4.965ZM.396 7.977h4.976V24H.396V7.977ZM2.882 0A2.883 2.883 0 0 0 0 2.882c0 1.591 1.291 2.909 2.882 2.909 1.591 0 2.882-1.318 2.882-2.909A2.884 2.884 0 0 0 2.882 0Z"/></svg>
